app/img/partner-5.svg

<svg width="70" height="70" viewBox="0 0 70 70" fill="none" xmlns="http://www.w3.org/2000/svg">
<g clip-path="url(#clip0)">
<path d="M9.67456 63.9495C9.68167 63.8361 9.64906 63.7237 9.58233 63.6317C9.54233 63.596 9.49547 63.5689 9.44462 63.5519C9.39377 63.535 9.34001 63.5286 9.2866 63.5331H9.00993V64.3849H9.2866C9.33957 64.3903 9.39307 64.3849 9.4439 64.3691C9.49473 64.3532 9.54182 64.3273 9.58233 64.2927C9.65084 64.2016 9.68364 64.0886 9.67456 63.9749V63.9495Z" fill="#00F0FF"/>
<path d="M9.57279 62.9547C9.60662 62.9138 9.63192 62.8666 9.64721 62.8159C9.6625 62.7651 9.66748 62.7118 9.66183 62.6591C9.66759 62.6069 9.66266 62.554 9.64736 62.5038C9.63205 62.4535 9.60668 62.4069 9.57279 62.3667C9.53563 62.3353 9.49262 62.3115 9.44623 62.2968C9.39984 62.2821 9.35099 62.2767 9.3025 62.2809H9.00993V63.0437H9.3025C9.35125 63.0482 9.40042 63.0426 9.44693 63.0273C9.49343 63.012 9.53628 62.9873 9.57279 62.9547Z" fill="#00F0FF"/>
<path d="M12.8863 62.3572C12.9678 62.5696 12.9994 62.798 12.9785 63.0246H12.3012C12.2815 62.7983 12.3119 62.5704 12.3902 62.3572C12.4176 62.3161 12.4551 62.2828 12.4991 62.2606C12.5431 62.2383 12.5921 62.2278 12.6414 62.23C12.6897 62.2286 12.7375 62.2395 12.7804 62.2617C12.8233 62.284 12.8597 62.3168 12.8863 62.3572Z" fill="#00F0FF"/>
<path d="M30.0137 62.2777V64.3563H29.2505C29.4167 63.8653 29.4964 63.3491 29.4858 62.8307V62.2777H30.0137Z" fill="#00F0FF"/>
<path d="M33.4926 63.0246C33.5139 62.7983 33.4834 62.57 33.4035 62.3572C33.3737 62.32 33.336 62.2901 33.293 62.2695C33.2501 62.2489 33.2031 62.2382 33.1555 62.2382C33.1079 62.2382 33.0609 62.2489 33.0179 62.2695C32.975 62.2901 32.9373 62.32 32.9075 62.3572C32.8259 62.5696 32.7944 62.798 32.8152 63.0246H33.4926Z" fill="#00F0FF"/>
<path d="M36.7584 63.6317C36.824 63.7241 36.8555 63.8365 36.8474 63.9495V63.9749C36.8574 64.0882 36.8258 64.2012 36.7584 64.2928C36.7174 64.3275 36.6698 64.3536 36.6184 64.3695C36.567 64.3853 36.513 64.3906 36.4595 64.3849H36.1828V63.5332H36.4595C36.5134 63.5284 36.5677 63.5346 36.6191 63.5516C36.6705 63.5685 36.7179 63.5958 36.7584 63.6317Z" fill="#00F0FF"/>
<path d="M36.8379 62.6591C36.8479 62.7655 36.8159 62.8715 36.7489 62.9547H36.752C36.7152 62.9868 36.6723 63.0113 36.6259 63.0266C36.5795 63.0418 36.5305 63.0477 36.4818 63.0437H36.1828V62.2809H36.4786C36.5764 62.2734 36.6733 62.3042 36.7489 62.3667C36.8161 62.4486 36.8481 62.5537 36.8379 62.6591Z" fill="#00F0FF"/>
<path d="M40.1451 63.0246C40.1664 62.7983 40.1359 62.5701 40.056 62.3572C40.0262 62.3201 39.9885 62.2901 39.9455 62.2695C39.9026 62.249 39.8556 62.2383 39.808 62.2383C39.7604 62.2383 39.7134 62.249 39.6704 62.2695C39.6275 62.2901 39.5897 62.3201 39.5599 62.3572C39.48 62.5701 39.4496 62.7983 39.4709 63.0246H40.1451Z" fill="#00F0FF"/>
<path d="M46.9089 63.3138C46.935 62.9933 46.9049 62.6706 46.8198 62.3604C46.793 62.319 46.7563 62.2851 46.7129 62.2616C46.6696 62.238 46.6211 62.2257 46.5718 62.2257C46.5225 62.2257 46.474 62.238 46.4307 62.2616C46.3874 62.2851 46.3506 62.319 46.3238 62.3604C46.2004 62.99 46.2004 63.6376 46.3238 64.2673C46.3484 64.3104 46.3848 64.3455 46.4288 64.3686C46.4727 64.3917 46.5223 64.4017 46.5718 64.3976C46.6212 64.401 46.6705 64.3906 46.7143 64.3676C46.7581 64.3446 46.7946 64.3099 46.8198 64.2673C46.9049 63.9571 46.935 63.6344 46.9089 63.3138Z" fill="#00F0FF"/>
<path d="M57.5459 62.3572C57.6258 62.57 57.6562 62.7983 57.6349 63.0246H56.9576C56.9367 62.798 56.9683 62.5696 57.0498 62.3572C57.0796 62.32 57.1174 62.2901 57.1603 62.2695C57.2032 62.2489 57.2502 62.2382 57.2978 62.2382C57.3454 62.2382 57.3925 62.2489 57.4354 62.2695C57.4783 62.2901 57.5161 62.32 57.5459 62.3572Z" fill="#00F0FF"/>
<path fill-rule="evenodd" clip-rule="evenodd" d="M69.0225 55.6321V69.5435L0.366821 69.553V22.3046H4.78381V55.6321H15.3699V22.3205H21.6567V14.0569H0.366821V0.012085H69.0225V14.0474H60.2521V32.6245L54.3183 14.0474H45.4684V55.6321H54.3183V36.5624L59.7751 55.6321H69.0225ZM24.0799 55.6321H42.4252V47.0507H34.6565V37.9799H41.2708V30.1327H34.6565V22.311H41.7319V14.0474H24.0799V55.6321ZM24.8144 60.625C24.8197 60.7278 24.8026 60.8305 24.7641 60.926C24.7257 61.0215 24.6669 61.1075 24.5918 61.178C24.4417 61.2984 24.2531 61.3605 24.0608 61.3528C23.8694 61.3606 23.6818 61.2984 23.5329 61.178C23.4584 61.1069 23.3998 61.0209 23.3609 60.9256C23.322 60.8303 23.3037 60.7279 23.3071 60.625H23.7428C23.7419 60.6654 23.7499 60.7056 23.7661 60.7426C23.7822 60.7797 23.8063 60.8128 23.8365 60.8397C23.8667 60.8666 23.9024 60.8866 23.9411 60.8984C23.9799 60.9102 24.0207 60.9134 24.0608 60.9079C24.1008 60.9129 24.1414 60.9092 24.1798 60.8973C24.2183 60.8853 24.2538 60.8653 24.2839 60.8385C24.314 60.8117 24.3381 60.7788 24.3544 60.742C24.3708 60.7052 24.3791 60.6653 24.3788 60.625H24.8144ZM25.0275 64.9316H24.3915V63.0945L23.6664 64.9316H23.094V61.7024H23.73V63.5395L24.4583 61.7024H25.0338L25.0275 64.9316ZM7.00652 63.9813C7.01044 64.2598 6.912 64.5301 6.72987 64.7409C6.63917 64.8246 6.53231 64.889 6.41583 64.93C6.29935 64.971 6.17572 64.9877 6.05253 64.9792C5.90769 64.9902 5.76243 64.9644 5.63016 64.9044C5.49789 64.8444 5.38286 64.7521 5.2957 64.636C5.14942 64.4326 5.0731 64.0003 5.0731 63.3138C5.0731 62.6273 5.14942 62.2046 5.2957 61.9917C5.38396 61.8771 5.49936 61.7864 5.63149 61.7275C5.76362 61.6687 5.90831 61.6437 6.05253 61.6548C6.29801 61.6409 6.53908 61.7243 6.72351 61.8868C6.9109 62.0949 7.01208 62.3665 7.00652 62.6464H6.37053C6.37446 62.5402 6.34439 62.4355 6.28467 62.3476C6.2594 62.3089 6.22429 62.2776 6.18294 62.257C6.14159 62.2363 6.09548 62.227 6.04935 62.23C5.99983 62.228 5.95069 62.2394 5.90706 62.2629C5.86343 62.2863 5.8269 62.3211 5.80131 62.3635C5.68221 62.9936 5.68221 63.6404 5.80131 64.2705C5.82976 64.3066 5.86571 64.3361 5.90667 64.357C5.94764 64.3779 5.99265 64.3896 6.0386 64.3914C6.08454 64.3932 6.13034 64.3851 6.17282 64.3675C6.2153 64.3499 6.25346 64.3233 6.28467 64.2896C6.34436 64.1945 6.37426 64.0839 6.37053 63.9717L7.00652 63.9813ZM10.3137 64.0194C10.3176 64.1644 10.2994 64.309 10.2597 64.4485C10.2214 64.5562 10.1594 64.6539 10.0784 64.7345C9.87429 64.899 9.61467 64.9787 9.35338 64.957H8.38349V61.7024H9.35338C9.61018 61.6754 9.86754 61.7483 10.0721 61.9058C10.1545 61.9951 10.2175 62.1005 10.2569 62.2154C10.2963 62.3304 10.3114 62.4522 10.301 62.5733C10.3089 62.6739 10.2951 62.7751 10.2606 62.8699C10.226 62.9648 10.1715 63.0511 10.1007 63.1231C10.0438 63.1801 9.9755 63.2245 9.90033 63.2534C9.97753 63.2775 10.0482 63.3188 10.107 63.3742C10.184 63.4566 10.2423 63.5546 10.2779 63.6616C10.3136 63.7685 10.3258 63.8819 10.3137 63.994V64.0194ZM13.6084 63.5045H13.6145L13.6081 63.5204L13.6084 63.5045ZM13.5477 62.4843C13.5935 62.8224 13.6138 63.1634 13.6084 63.5045H12.3139C12.2907 63.7627 12.3233 64.0228 12.4093 64.2673C12.4368 64.3066 12.4735 64.3388 12.5161 64.3609C12.5587 64.3831 12.6061 64.3947 12.6542 64.3947C12.7022 64.3947 12.7495 64.3831 12.7922 64.3609C12.8348 64.3388 12.8714 64.3066 12.899 64.2673C12.9589 64.1821 12.987 64.0787 12.9785 63.9749H13.6145C13.6203 64.2469 13.5238 64.5111 13.3442 64.7154C13.2543 64.8052 13.1462 64.8747 13.0272 64.9191C12.9081 64.9635 12.7809 64.9819 12.6542 64.9729C12.5276 64.9792 12.4011 64.9589 12.2828 64.9135C12.1645 64.8681 12.0571 64.7985 11.9673 64.7091C11.8359 64.5591 11.7528 64.373 11.7288 64.1751C11.6525 63.5981 11.6525 63.0136 11.7288 62.4366C11.7528 62.2397 11.836 62.0546 11.9673 61.9058C12.0565 61.8239 12.1614 61.7609 12.2756 61.7205C12.3898 61.6801 12.511 61.6631 12.6319 61.6706C12.7569 61.6646 12.8819 61.6844 12.9989 61.7286C13.116 61.7729 13.2227 61.8408 13.3124 61.9281C13.4466 62.0846 13.5288 62.279 13.5477 62.4843ZM18.3813 64.9316H17.6658L16.8454 63.2471L17.5959 61.7024H18.2891L17.5037 63.228L18.3813 64.9316ZM16.839 64.9316H16.2031V63.2471V61.7024H16.839V64.9316ZM16.2031 63.2471L15.3858 64.9316H14.6671L15.5448 63.228L14.7593 61.7024H15.4526L16.2031 63.2471ZM20.9189 64.9284H21.5613V61.7024H20.9921L20.267 63.5395V61.7024H19.6247V64.9284H20.1939L20.9189 63.0914V64.9284ZM30.338 65.7516H30.9486V64.3563H30.6529V61.7025H28.853V62.7132C28.8651 63.2734 28.7713 63.8309 28.5763 64.3563H28.3092V65.7516H28.9198V64.9316H30.338V65.7516ZM34.1254 63.5045H32.8089C32.7861 63.7629 32.8198 64.0232 32.9075 64.2673C32.9327 64.3099 32.9692 64.3446 33.013 64.3676C33.0568 64.3906 33.1061 64.401 33.1555 64.3976C33.203 64.3995 33.2503 64.3891 33.2926 64.3673C33.3349 64.3456 33.371 64.3134 33.3972 64.2737C33.4557 64.1878 33.4837 64.0849 33.4767 63.9813H34.1127C34.1173 64.2536 34.0197 64.5178 33.8392 64.7218C33.7499 64.8115 33.6424 64.881 33.5238 64.9254C33.4053 64.9698 33.2786 64.9882 33.1523 64.9793C33.0252 64.9858 32.8982 64.9657 32.7794 64.9203C32.6606 64.8748 32.5525 64.8051 32.4623 64.7154C32.3309 64.5655 32.2478 64.3794 32.2238 64.1815C32.1474 63.6045 32.1474 63.02 32.2238 62.443C32.2478 62.246 32.3309 62.061 32.4623 61.9122C32.5521 61.8242 32.6593 61.7559 32.777 61.7116C32.8947 61.6673 33.0204 61.6479 33.146 61.6548C33.2715 61.6489 33.3968 61.6687 33.5144 61.7129C33.632 61.7572 33.7392 61.825 33.8297 61.9122C33.9626 62.0695 34.0447 62.2635 34.065 62.4684C34.1099 62.8119 34.1301 63.1582 34.1254 63.5045ZM37.4389 64.4485C37.4786 64.3091 37.4969 64.1644 37.493 64.0194V63.994C37.5051 63.8819 37.4929 63.7686 37.4572 63.6616C37.4215 63.5547 37.3632 63.4567 37.2863 63.3742C37.227 63.3194 37.1565 63.2782 37.0796 63.2535C37.1543 63.2237 37.2224 63.1794 37.2799 63.1232C37.3507 63.0512 37.4052 62.9648 37.4398 62.87C37.4744 62.7751 37.4882 62.674 37.4803 62.5733C37.4906 62.4523 37.4756 62.3304 37.4362 62.2155C37.3967 62.1006 37.3338 61.9951 37.2513 61.9059C37.0468 61.7483 36.7894 61.6755 36.5326 61.7025H35.5786V64.957H36.5326C36.7938 64.9777 37.0531 64.8982 37.2577 64.7346C37.3376 64.6531 37.3994 64.5556 37.4389 64.4485ZM40.781 63.5046H39.4709C39.4477 63.7627 39.4803 64.0228 39.5663 64.2674C39.5939 64.3067 39.6305 64.3388 39.6731 64.361C39.7158 64.3832 39.7631 64.3947 39.8112 64.3947C39.8592 64.3947 39.9066 64.3832 39.9492 64.361C39.9918 64.3388 40.0285 64.3067 40.056 64.2674C40.1159 64.1822 40.1441 64.0787 40.1355 63.9749H40.7715C40.7758 64.2466 40.6795 64.5103 40.5012 64.7155C40.4111 64.8049 40.3029 64.8742 40.184 64.9186C40.065 64.963 39.9379 64.9815 39.8112 64.9729C39.6846 64.9792 39.5581 64.959 39.4398 64.9136C39.3216 64.8681 39.2141 64.7985 39.1243 64.7091C38.9905 64.5603 38.9061 64.3738 38.8826 64.1752C38.8063 63.5982 38.8063 63.0137 38.8826 62.4367C38.9057 62.2388 38.9902 62.0532 39.1243 61.9059C39.2133 61.8177 39.3199 61.7491 39.4371 61.7048C39.5544 61.6604 39.6796 61.6412 39.8048 61.6484C39.9303 61.6422 40.0558 61.6618 40.1735 61.7061C40.2911 61.7504 40.3983 61.8184 40.4885 61.9059C40.624 62.0616 40.7064 62.2564 40.7238 62.4621C40.7703 62.8054 40.7905 63.1518 40.7842 63.4982L40.781 63.5046ZM43.5158 64.9316H44.1518L44.1582 61.7025H42.3965V63.5046C42.3987 63.661 42.387 63.8174 42.3615 63.9718C42.351 64.0646 42.3171 64.1531 42.2629 64.2292C42.2291 64.2726 42.1855 64.3075 42.1357 64.3309C42.0879 64.3484 42.0372 64.357 41.9863 64.3563H41.8877V64.9316H42.0912C42.2222 64.9432 42.3541 64.9233 42.4758 64.8735C42.5975 64.8238 42.7055 64.7456 42.7908 64.6456C42.9679 64.3283 43.0445 63.9648 43.0102 63.6031V62.2841H43.5158V64.9316ZM47.5449 63.3138C47.5449 63.9845 47.4717 64.423 47.3223 64.636C47.2282 64.7439 47.1122 64.8303 46.9819 64.8896C46.8516 64.9488 46.7102 64.9795 46.567 64.9795C46.4239 64.9795 46.2824 64.9488 46.1522 64.8896C46.0219 64.8303 45.9058 64.7439 45.8118 64.636C45.6623 64.423 45.5892 63.9845 45.5892 63.3138C45.5892 62.6432 45.6623 62.2046 45.8118 61.9917C45.9069 61.8856 46.0234 61.8008 46.1535 61.7427C46.2836 61.6847 46.4245 61.6547 46.567 61.6547C46.7095 61.6547 46.8505 61.6847 46.9806 61.7427C47.1107 61.8008 47.2271 61.8856 47.3223 61.9917C47.4717 62.2046 47.5449 62.6432 47.5449 63.3138ZM50.216 64.9284H50.8552V61.7024H48.9758V64.9284H49.615V62.2841H50.216V64.9284ZM54.8874 64.9284H54.245V63.0755L53.8126 64.1275H53.4659L53.0303 63.0755V64.9284H52.3911V61.7024H52.9762L53.6408 63.3011L54.3055 61.7024H54.8874V64.9284ZM56.9544 63.5045H58.2645C58.27 63.1582 58.2509 62.812 58.2073 62.4684C58.187 62.2635 58.105 62.0695 57.972 61.9122C57.8816 61.825 57.7743 61.7572 57.6567 61.7129C57.5392 61.6687 57.4138 61.6489 57.2883 61.6548C57.1627 61.6479 57.037 61.6673 56.9193 61.7116C56.8016 61.7559 56.6945 61.8242 56.6046 61.9122C56.4733 62.061 56.3901 62.246 56.3661 62.443C56.2898 63.02 56.2898 63.6045 56.3661 64.1815C56.3901 64.3794 56.4732 64.5655 56.6046 64.7154C56.6949 64.8051 56.8029 64.8748 56.9217 64.9203C57.0406 64.9657 57.1676 64.9858 57.2947 64.9792C57.4209 64.9882 57.5476 64.9698 57.6662 64.9254C57.7847 64.881 57.8923 64.8115 57.9815 64.7218C58.162 64.5178 58.2596 64.2536 58.255 63.9813H57.619C57.6267 64.0845 57.5998 64.1873 57.5427 64.2737C57.5165 64.3134 57.4805 64.3456 57.4381 64.3673C57.3958 64.3891 57.3486 64.3995 57.301 64.3976C57.2516 64.401 57.2023 64.3906 57.1585 64.3676C57.1147 64.3446 57.0782 64.3099 57.053 64.2673C56.9653 64.0232 56.9316 63.7629 56.9544 63.5045ZM61.5812 64.9284H60.9421V63.5713H60.341V64.9284H59.7019V61.7024H60.341V62.996H60.9421V61.7024H61.5812V64.9284ZM64.0966 62.2841H64.6754V61.7024H62.8691V62.2841H63.4543V64.9284H64.0966V62.2841Z" fill="#00F0FF"/>
</g>
<defs>
<clipPath id="clip0">
<rect width="68.6588" height="69.5505" fill="white" transform="translate(0.366821)"/>
</clipPath>
</defs>
</svg>

<svg width="70" height="70" fill="none" xmlns="http://www.w3.org/2000/svg"><g clip-path="url(#clip0)" fill="#00F0FF"><path d="M9.675 63.95a.49.49 0 00-.093-.318.395.395 0 00-.295-.099H9.01v.852h.277a.395.395 0 00.295-.092.467.467 0 00.093-.318v-.026zm-.102-.995a.398.398 0 00.089-.296.387.387 0 00-.09-.292.369.369 0 00-.27-.086H9.01v.763h.293a.357.357 0 00.27-.09zm3.313-.598c.082.213.113.441.093.668H12.3c-.02-.227.01-.455.09-.668a.286.286 0 01.25-.127.284.284 0 01.245.127zm17.128-.079v2.078h-.764a4.473 4.473 0 00.236-1.525v-.553h.528zm3.479.747a1.5 1.5 0 00-.09-.668.317.317 0 00-.495 0 1.478 1.478 0 00-.093.668h.678zm3.265.607a.489.489 0 01.09.318v.025a.467.467 0 01-.09.318.4.4 0 01-.299.092h-.276v-.852h.276a.396.396 0 01.3.099zm.08-.972a.41.41 0 01-.09.295h.004a.367.367 0 01-.27.089h-.3v-.763h.297a.379.379 0 01.27.086.4.4 0 01.089.292zm3.307.365a1.5 1.5 0 00-.089-.668.318.318 0 00-.496 0 1.5 1.5 0 00-.09.668h.675zm6.764.289a2.758 2.758 0 00-.09-.954.294.294 0 00-.388-.098.295.295 0 00-.107.098 4.957 4.957 0 000 1.907.26.26 0 00.248.13.267.267 0 00.248-.13c.085-.31.115-.633.089-.953zm10.637-.957c.08.213.11.441.089.668h-.677c-.021-.227.01-.455.092-.668a.318.318 0 01.496 0z"/><path fill-rule="evenodd" clip-rule="evenodd" d="M69.022 55.632v13.911l-68.655.01V22.305h4.417v33.327H15.37V22.321h6.287v-8.264H.367V.012h68.655v14.035h-8.77v18.577l-5.934-18.577h-8.85v41.585h8.85v-19.07l5.457 19.07h9.247zm-44.942 0h18.345v-8.581h-7.768V37.98h6.614v-7.847h-6.614V22.31h7.075v-8.264H24.08v41.585zm.734 4.993a.707.707 0 01-.222.553.798.798 0 01-.531.175.789.789 0 01-.528-.175.73.73 0 01-.226-.553h.436a.278.278 0 00.198.273.28.28 0 00.12.01.283.283 0 00.318-.283h.435zm.213 4.307h-.636v-1.838l-.725 1.838h-.572v-3.23h.636v1.837l.728-1.837h.576l-.006 3.23zm-18.02-.95c.003.278-.095.548-.277.759a.907.907 0 01-.677.238.864.864 0 01-.757-.343c-.147-.203-.223-.636-.223-1.322 0-.687.076-1.11.223-1.322a.872.872 0 01.757-.337.935.935 0 01.67.232c.188.208.29.48.284.76H6.37a.499.499 0 00-.086-.3.26.26 0 00-.236-.117.277.277 0 00-.248.134 5.138 5.138 0 000 1.907.318.318 0 00.484.019.563.563 0 00.086-.318l.636.01zm3.307.037c.004.145-.015.29-.054.43a.765.765 0 01-.182.285 1.02 1.02 0 01-.725.223h-.97v-3.255h.97c.257-.027.515.046.72.204a.875.875 0 01.228.667.706.706 0 01-.2.55.574.574 0 01-.2.13.533.533 0 01.206.121.783.783 0 01.207.62v.025zm3.294-.515h.006l-.006.016v-.016zm-.06-1.02c.046.338.066.68.06 1.02h-1.294c-.023.259.01.519.095.763a.298.298 0 00.49 0 .445.445 0 00.08-.292h.636c.005.272-.091.536-.27.74a.888.888 0 01-.69.258.91.91 0 01-.688-.264.992.992 0 01-.238-.534 6.63 6.63 0 010-1.738.982.982 0 01.238-.531.9.9 0 01.665-.235.915.915 0 01.68.257.992.992 0 01.236.556zm4.833 2.448h-.715l-.82-1.685.75-1.545h.693l-.785 1.526.877 1.704zm-1.542 0h-.636v-3.23h.636v3.23zm-.636-1.685l-.817 1.685h-.719l.878-1.704-.786-1.526h.694l.75 1.545zm4.716 1.681h.642v-3.226h-.569l-.725 1.837v-1.837h-.642v3.226h.569l.725-1.837v1.837zm9.419.824h.61v-1.396h-.295v-2.653h-1.8v1.01a4.446 4.446 0 01-.277 1.643h-.267v1.396h.61v-.82h1.419v.82zm3.787-2.247H32.81c-.023.258.01.518.099.762a.266.266 0 00.248.13.275.275 0 00.241-.123.464.464 0 00.08-.293h.636a1.09 1.09 0 01-.274.74.88.88 0 01-.687.258.914.914 0 01-.69-.264.99.99 0 01-.238-.534 6.622 6.622 0 010-1.738.98.98 0 01.238-.53.905.905 0 01.684-.258.924.924 0 01.684.257c.133.157.215.352.235.556.045.344.065.69.06 1.036zm3.314.943c.04-.139.058-.284.054-.429v-.025a.784.784 0 00-.207-.62.554.554 0 00-.206-.12.61.61 0 00.2-.13.707.707 0 00.2-.55.875.875 0 00-.229-.668 1.005 1.005 0 00-.718-.203h-.954v3.254h.954c.26.02.52-.059.725-.222a.808.808 0 00.18-.287zm3.342-.943h-1.31c-.023.258.01.518.095.762a.3.3 0 00.49 0 .445.445 0 00.08-.292h.636c.004.272-.093.535-.27.74a.895.895 0 01-.69.258.91.91 0 01-.688-.264.969.969 0 01-.241-.534 6.63 6.63 0 010-1.738.952.952 0 01.241-.531.893.893 0 01.68-.258.918.918 0 01.684.258c.136.156.218.35.236.556.046.343.067.69.06 1.036l-.003.007zm2.735 1.427h.636l.006-3.23h-1.761v1.803a2.64 2.64 0 01-.035.467.55.55 0 01-.1.257.35.35 0 01-.126.102.418.418 0 01-.15.025h-.098v.576h.203a.824.824 0 00.7-.286c.177-.318.254-.681.22-1.043v-1.319h.505v2.648zm4.029-1.618c0 .67-.073 1.109-.223 1.322a1.002 1.002 0 01-1.51 0c-.15-.213-.223-.651-.223-1.322 0-.67.073-1.11.223-1.322a1.014 1.014 0 011.51 0c.15.213.223.651.223 1.322zm2.671 1.614h.64v-3.226h-1.88v3.226h.639v-2.644h.601v2.644zm4.671 0h-.642v-1.852l-.432 1.051h-.347l-.436-1.051v1.852h-.639v-3.226h.585l.665 1.6.665-1.6h.581v3.226zm2.067-1.423h1.31a7.308 7.308 0 00-.057-1.037 1.017 1.017 0 00-.235-.556.923.923 0 00-.684-.257.907.907 0 00-.683.257.982.982 0 00-.239.531 6.63 6.63 0 000 1.739.99.99 0 00.239.533.913.913 0 00.69.264.88.88 0 00.686-.257 1.09 1.09 0 00.274-.74h-.636a.467.467 0 01-.076.292.276.276 0 01-.242.124.267.267 0 01-.248-.13 1.79 1.79 0 01-.099-.764zm4.627 1.423h-.639v-1.357h-.601v1.357h-.64v-3.226h.64v1.294h.601v-1.294h.64v3.226zm2.516-2.644h.578v-.582H62.87v.582h.585v2.644h.643v-2.644z"/></g><defs><clipPath id="clip0"><path fill="#fff" transform="translate(.367)" d="M0 0h68.659v69.55H0z"/></clipPath></defs></svg>
